X:11
T:A Fig for a Kiss
M:9/8
L:1/8
K:G
"Em" G2 B E2 B BAG|"D" F2 A DFA AGF|"Em" G2 B E2 B BAG|\
"D" B^cd AGF "Em" E3:||:"Em" g2 e g2 e edB|
"D" f2 d d^cd fed|1 "Em" g2 e g2 e edB|\
"G" GFG GBd "Em" e2 f:|2 "Em" gfg "D" fed "Em" e2 d|"D" Bcd AGF "Em" E3||
